X: 305612
M: 2/4
L: 1/16
K: D
dfAd BABc | dfAd BABc | dcde fdgf | edcB A2Bc |\
dfAd BABc | dfAd BABc | d2a2 afec | d2f2d2 :|
|: cd |\
e3f edcd | edcB A2cd | e3f edcd | e2B2 B2cd |\
e3f edcd | edcB A2fg | a3b agfe | d2f2d2 :|


